X:2186
T:General Toast. WM062
O:england
M:6/8
L:1/8
Q:100
S:Wm.Mittell,1799
R:Jig
A:Kent
K:G
GAG gfg|eded3|GAG gfg|{f}e3d3|GAG gfg|ede d2B|cdc BcB|~A3G3||
Bcdd3|dcBA2A|Bcd ded|cBAG3|Bcdd3|dcBA2A|Bcd dgd|cBAG3|]


